X: 1
T: Nell O'Sullivan's
M: 12/8
L: 1/8
R: slide
K: Dmaj
A2A BAF A3 A2A|Bcd A2F E3 E3|
A2A BAF A3 A2A|Bcd efe d3 d2e:|
|:f2e d2f a3 a2f|g2f e2f g3 gfe|
f2e d2f a3 a2f|efg f2e d3 d2e:|
